X: 1
T: John Kelly's
R: reel
M: 4/4
L: 1/8
K: Edor
|:Beed BcdB|~B2AG EFGA|Beed BcdB|~B2AF D2FA:|
|:Beed BcdB|~B2AG EFGA|Beed BcdB|~B2AF D2FA:|
Beec d2fd|edBc dBA2|Beec d2fd|edBc ~d3A|
Beec d2fd|edBc dBA2|egge ~f3e|dBAB e3A||

